!!!!SEGMENT: pl-kozmzk--mzk-m-137--001_cwiklicz-boleslaw-jan--daj-mi-ptaku-twoj-lot-smialy.krn
!!!cenid: 18xx:2959
!!!COM: Ćwiklicz, Bolesław Jan
!!!COM-rismID: pe41023611
!!!CDT: ~1800-~1899
!!!CNT: Polish
!!!OTL: Daj mi, ptaku, twój lot śmiały
!!!PDT:
!!!AGN: Secular
!!!SMS-siglum: PL-KOZmzk
!!!SMS-shelfmark: mzk/m/137
!!!SMS-shelfwork: 001 W
!!!SMS-variant:
!!!SMS-altvar:
!!!NIFC-rismSourceID: 1001084050
!!!NIFC-rismChildID: 1001084050
!!!NIFC-islandoraID: pl-kozmzk:1738
!!!URL-pdf-islandora: https://repozytorium.nifc.pl/islandora/object/pl-kozmzk%3A1738/datastream/PDF/view
!!!URL-scan: https://polish.musicsources.pl/pl/lokalizacje/galeria/rekopisy/450 @EN{Scan on Polish Music Sources Website} @PL{Skany w portalu Dziedzictwo Muzyki Polskiej w otwartym dostępie}
!!!IIIF:
!!!ONB-nifc:
!!!AIN: 1 empty
!!!key:
**kern	**text	**kern	**text	**dynam
*part1	*part1	*part1	*part1	*part1
*staff2	*staff2	*staff1	*staff1	*
*Iempty	*	*Iempty	*	*
*I"	*	*I"	*	*
*clefF4	*	*clefG2	*	*
*k[b-]	*	*k[b-]	*	*
*F:	*	*F:	*	*
*M2/4	*	*M2/4	*	*
=1	=1	=1	=1	=1
*^	*	*^	*	*
!!LO:TX:a:i:t=Słowa A. Niemojewskiego
!!LO:TX:i:t=Po krakowsku.:note=zapis pionowy od dołu
!!LO:TX:a:i:t=Chórowi Akademickiemu we Lwowie.
!	!	!	!	!	!	!LO:DY:b
8C/L	8FF\L	.	8ff/L	8a\L	Daj	p
8C/J	8FF\J	.	8cc/J	8a\J	mi,	.
8C/L	8FF\L	.	8a/L	8f\L	pta-	.
8C/J	8FF\J	.	8b-/J	8g\J	-ku,	.
=2	=2	=2	=2	=2	=2	=2
8C/L	8FF\L	.	(16dd/LL	(16b-\LL	twój	.
.	.	.	16cc/J)	16a\J)	.	.
8C/J	8FF\J	.	8a/J	8f\J	lot	.
8C/L	8FF\L	.	8f/L	8d\L	śmia-	.
8C/J	8FF\J	.	8g/J	8e\J	-ły,	.
=3	=3	=3	=3	=3	=3	=3
!	!	!	!	!	!	!LO:HP:a=2
8C/L	8FF\L	.	8.a/L	8.f\L	A	<
8D/J	8FF\J	.	.	.	.	.
.	.	.	16cc/Jk	16a\Jk	wy-	.
8D/L	8GG\L	.	8bn/L	8g\L	-le-	.
8G/J	8GG\J	.	8dd/J	8b\J	-cę	[
=4	=4	=4	=4	=4	=4	=4
8G/L	8C\L	.	16ee/LL	8cc\L	po-	.
!	!	!	!	!	!	!LO:HP:a=2
.	.	.	16dd/JJ	.	.	>
!	!	!	!LO:TX:a:i:t=muzyka B. Ćwiklicza.	!	!	!
8E/J	8C\J	.	4cc/	8g\J	-nad	.
8F/L	8D\L	.	.	8g\L	ska-	.
8G/J	8E\J	.	8g/	8g\J	-ły,	]]
=5	=5	=5	=5	=5	=5	=5
!	!	!	!	!	!	!LO:HP:a=2
8F/L	8F\L	.	8.a/L	8.a\L	Po-	<
8F/J	8D\J	.	.	.	.	.
.	.	.	16cc/Jk	16a\Jk	-nad	.
16G/LL	16G\LL	sła-	8bn/L	8g\L	sła-	.
16G/	16GG\	-bą	.	.	.	.
16G/	16AA\	lu-	8dd/J	8g\J	-bą	.
16G/JJ	16BBn\JJ	-dzką	.	.	.	[[
!!LO:LB:g=original
=6	=6	=6	=6	=6	=6	=6
!	!	!	!	!	!	!LO:HP:a=2
8G/L	8C\L	wo-	(<16ee/LL	8cc\L	lu-	<
.	.	.	16dd/J)	.	.	.
8G/J	8E\J	-lę,	8cc/J	8cc\J	-dzką	.
8G/L	8G\L	Po-	8ee/L	8cc\L	wo-	.
8G#X/J	8E\J	-nad	8ee/J	8cc\J	-lę,	.
=7	=7	=7	=7	=7	=7	=7
8A/L	8F\L	do-	16ee/LL	16cc\LL	Po-	.
.	.	.	16dd/J	16cc\J	-nad	.
8Gn/J	8Gn\J	-lę	[8gg/J	[8bn\J	do-	[
!	!	!	!	!	!	!LO:HP:a=2
8G/L	8GG\L	i	16gg/LL]	16b\LL]	.	>
.	.	.	16ff/	16b\	-lę	.
8F/J	8C\J	nie-	16ee/	16g\	i	.
.	.	.	16dd/JJ	16g\JJ	nie-	.
=8	=8	=8	=8	=8	=8	=8
(8F/L	4C\	-do-	8dd/	4g\	-do-	.
8E/J)	.	.	4cc/	.	-lę	.
8E/	8C\	-lę.	.	8g\	.	]
8r	8rF	.	(<8cc/	8rd	Daj	.
=9	=9	=9	=9	=9	=9	=9
8F/L	8FF\L	.	8ff/L)	8a\L	.	.
8F/J	8AA\J	.	8cc/J	8a\J	mi	.
8F/L	8C\L	.	8a/L	8a\L	two-	.
8F/J	8D\J	.	8b-/J	8b-\J	-ich	.
=10	=10	=10	=10	=10	=10	=10
8G/L	8E\L	.	(<16dd/LL	8b-\L	skrzy-	.
.	.	.	16cc/J)	.	.	.
8F/J	8F\J	.	8a/J	8a\J	-deł,	.
8F/L	8D\L	.	8f/L	8f\L	pta-	.
8E/J	8C\J	.	8g/J	8g\J	-ku,	.
!!LO:LB:g=original
=11	=11	=11	=11	=11	=11	=11
!	!	!	!	!	!	!LO:HP:a=2
8F/L	8F\L	A	8.a/L	8.f\L	A	<
8F/J	8D\J	u-	.	.	.	.
.	.	.	16cc/Jk	16a\Jk	u-	.
8G/L	16G\LL	-to-	8bn/L	8g\L	-to-	.
.	16GG\	-nę	.	.	.	.
8F/J	16AA\	w gór-	8dd/J	8g\J	-nę	.
.	16BBn\JJ	-nym	.	.	.	[
=12	=12	=12	=12	=12	=12	=12
!	!	!	!	!	!	!LO:HP:a=2
(16G/LL	(4C\	szla-	16ee/LL	8cc\L	w gó-	>
16F/J)	.	.	16dd/JJ	.	.	.
8E/J	.	.	4cc/	8g\J	-rnym	.
8D/L	8BBn\L)	.	.	8f\L	szla-	.
8D/J	8BB-X\J	-ku,	8g/	8e\J	-ku,	]]
=13	=13	=13	=13	=13	=13	=13
!	!	!	!	!	!	!LO:HP:a=2
(16C#X/LL	(16AA\LL	.	8.a/L	8.a\L	Gdzie	<
16D/)	16BBn\)	.	.	.	.	.
(16E/	(16C#X\	.	.	.	.	.
16F/JJ)	16D\JJ)	.	16bn/Jk	16a\Jk	łza	.
8G/L	8E\L	.	8cc#X/L	8a\L	o-	.
8A/J	8F\J	.	16ee/L	8a\J	-ka	.
.	.	.	16dd/JJ	.	.	.
=14	=14	=14	=14	=14	=14	=14
(16G/LL	(16G\LL	.	(16cc#X/LL	(16b-\LL	nie	.
16A/)	16F\)	.	16dd/)	16a\J)	.	.
(16G/	(16E\	.	(16ee/	8a\J	za-	.
16F/JJ)	16D\JJ)	.	16ff/JJ)	.	.	.
(16E/LL	8BB-\L	.	8gg/L	8dd\L	-cie-	[
16F/J)	.	.	.	.	.	.
8G/J	8BBn\J	.	8ff/J	(16ee\L	-mni	.
.	.	.	.	16dd\JJ)	.	.
!!LO:LB:g=original
=15	=15	=15	=15	=15	=15	=15
16A/LL	16C\LL	.	16ee/LL	16cc\LL	Gdzie	.
16G/J	16C\	.	16ee/	16b-\	za-	.
[8c/J	16C\	.	16ee/	16a\	-po-	.
.	16C\JJ	.	16ee/JJ	16g\JJ	-mnę	.
16c/LL]	8C\L	.	8ee/L	8cc\L	o	.
16B-/	.	.	.	.	.	.
16A/	8C\J	.	8ee/J	8b-\J	tej	.
16G/JJ	.	.	.	.	.	.
=16	=16	=16	=16	=16	=16	=16
!	!	!	!	!	!	!LO:HP:a=2
8G/	8FF\ 8C	.	8ee/	8b-\	zie-	>
4F/	4FF\ 4C	.	4ff/	4a\	-mi.	]]
8r;	8rF	.	8rg;	8r	.	.
=17	=17	=17	=17	=17	=17	=17
!	!	!	!	!	!	!LO:DY:b
8F/L	8F\L	.	8ff/L	8ff\L	Daj	f
8C/J	8C\J	.	8cc/J	8cc\J	mi,	.
8AA/L	8AA\L	.	8a/L	8a\L	pta-	.
8BB-/J	8BB-\J	.	8b-/J	8b-\J	-ku	.
=18	=18	=18	=18	=18	=18	=18
(16D/LL	(16D\LL	.	(16dd/LL	(16dd\LL	twój	.
16C/J)	16C\J)	.	16cc/J)	16cc\J)	.	.
8AA/J	8AA\J	.	8a/J	8a\J	lot	.
!	!	!	!	!	!	!LO:HP:a=2
8FF/L	8FF\L	.	8f/L	4rcyy	śmia-	<
8GG/J	8GG\J	.	8g/J	.	-ły,	.
=19	=19	=19	=19	=19	=19	=19
8AA/L	8.AA\L	.	8.a/L	8.a\L	Daj	.
(16A/L	.	.	.	.	.	.
16G/JJ)	16AA\Jk	.	16bn/Jk	16b\Jk	mi	.
8F/L	8AA\L	.	8cc/L	8cc\L	two-	.
8F/J	8AA-X\J	.	8dd/J	8cc\J	-ich	[[
!!LO:LB:g=original
=20	=20	=20	=20	=20	=20	=20
!	!	!	!	!	!	!LO:HP:a=2
8.G/L	8.GG\L	.	8.ee/L	8.cc\L	szkrzy-	>
16F/Jk	16GG\Jk	.	16dd/Jk	16bn\Jk	-deł,	.
4E/	4C\	.	4cc/	4cc\	daj!	]]
=21	=21	=21	=21	=21	=21	=21
!	!	!	!	!	!	!LO:DY:a=2
8C/L	8FF\L	.	8ff/L	8a\L	Daj	ff
8A/J	8FF\J	.	8cc/J	8f\J	mi,	.
!	!	!	!	!LO:TX:t=P:problem=błędne wyświetlanie łuku	!	!
(16A/LL	8FF\L	.	(16a/LL	(>16f\LL	pta-	.
16G/J)	.	.	16b-/J)	16g\J)	.	.
8F/J	8FF\J	.	8cc/J	8a\J	-ku,	.
=22	=22	=22	=22	=22	=22	=22
8G/L	8BB-\L	.	(16dd/LL	8f\L	two-	.
.	.	.	16cc/)	.	.	.
8G/J	8C\J	.	(16b-/	8f\J	-ich	.
.	.	.	16a/JJ)	.	.	.
8G/L	8D\L	.	8b-/L	8f\L	skrzy-	.
(16D/L	8BB-\J	.	8dd/J	8g\J	-deł,	.
16E/JJ)	.	.	.	.	.	.
=23	=23	=23	=23	=23	=23	=23
!	!	!	!	!	!	!LO:HP:a=2
8F/L	(16AA\LL	.	8cc/L	8a\L	daj-	<
.	16GG\J)	.	.	.	.	.
(16E/L	8C\J	.	8cc/J	(16g\L	-mi	.
16F/JJ)	.	.	.	16a\JJ)	.	.
8E/L	(16C\LL	.	8cc/L	8g\L	lot	[
.	16BB-\)	.	.	.	.	.
8E/J	(16AA\	.	8cc/J	8b-\J	twój,	.
.	16GG\JJ)	.	.	.	.	.
=24	=24	=24	=24	=24	=24	=24
!	!	!	!	!	!	!LO:HP:a=2
(4E/	8GG\	.	(4cc/	(4b-\	daj!	>
.	4FF\	.	.	.	.	.
8F/)	.	.	8ff/)	8a\)	.	.
8rGG	8rF	.	8re	8rdd	.	]
*v	*v	*	*	*	*	*
*	*	*v	*v	*	*
==	==	==	==	==
*-	*-	*-	*-	*-
!!!system-decoration: [(s1,s2)]
!!!RDF**kern: > = above
!!!RDF**kern: < = below
!!!ENC: Mateusz Solarz
!!!END: 2021-09-23
!!!ENC: Kamil Watkowski
!!!END: 2021-10-06
!!!YEC: Copyright 2022 Narodowy Instytut Fryderyka Chopina (https://polishscores.org)
!!!YEM: License CC-BY-4.0 (https://creativecommons.org/licenses/by/4.0)
